X: 36923
T: Shore House, The
R: reel
M: 4/4
K: Bminor
edcA BFF2|BFdF BFF2|edcA BFF2|EFAc B3c:|
efec A2A2|Acec fBB2|eAA2 A2ce|faec dBB2|
efec eAA2|Acec fBB2|eAce afea|fedc Bcdf||

